svg/pan.svg

<svg xmlns="http://www.w3.org/2000/svg" viewBox="0 0 24 24"><path d="M12 2.5 8 7h8zM7 8l-4.5 4L7 16zm10 0v8l4.5-4zm-5 2a2 2 0 0 0-2 2 2 2 0 0 0 2 2 2 2 0 0 0 2-2 2 2 0 0 0-2-2m-4 7 4 4.5 4-4.5z"/></svg>

<?xml version="1.0" encoding="UTF-8"?><!DOCTYPE svg PUBLIC "-//W3C//DTD SVG 1.1//EN" "http://www.w3.org/Graphics/SVG/1.1/DTD/svg11.dtd"><svg xmlns="http://www.w3.org/2000/svg" xmlns:xlink="http://www.w3.org/1999/xlink" version="1.1" id="mdi-pan" width="24" height="24" viewBox="0 0 24 24"><path d="M12,2.5L8,7H16L12,2.5M7,8L2.5,12L7,16V8M17,8V16L21.5,12L17,8M12,10A2,2 0 0,0 10,12A2,2 0 0,0 12,14A2,2 0 0,0 14,12A2,2 0 0,0 12,10M8,17L12,21.5L16,17H8Z" /></svg>
